;FLAVOR:UltiGCode
;TIME:991
;MATERIAL:3167
;MATERIAL2:0
;NOZZLE_DIAMETER:0.4
;Generated with Cura_SteamEngine 3.1.0
M82 ; absolute extrusion mode

;LAYER_COUNT:108
;LAYER:0
M107
G0 F3600 X94.188 Y100.116 Z0.3
;TYPE:SKIRT
G1 F1800 X94.519 Y99.856 E0.05051
G1 X96.997 Y98.115 E0.41392
G1 X97.228 Y97.965 E0.44698
G1 X98.522 Y97.183 E0.62841
G1 X99.025 Y96.925 E0.69624
G1 X99.56 Y96.741 E0.76414
G1 X100.221 Y96.623 E0.84471
G1 X103.441 Y96.324 E1.23277
G1 X108.077 Y95.714 E1.79389
G1 X108.641 Y95.68 E1.86169
G1 X109.388 Y95.759 E1.95183
G1 X117.176 Y97.327 E2.90514
G1 X117.586 Y97.432 E2.95593
G1 X123.914 Y99.42 E3.75188
G1 X124.44 Y99.627 E3.81971
G1 X124.931 Y99.906 E3.88748
G1 X125.379 Y100.252 E3.95541
G1 X125.818 Y100.711 E4.03163
G1 X127.91 Y103.282 E4.42938
G1 X128.235 Y103.745 E4.49726
G1 X128.491 Y104.249 E4.56509
G1 X128.674 Y104.784 E4.63294
G1 X128.78 Y105.339 E4.70075
G1 X128.806 Y105.904 E4.76862
G1 X128.752 Y106.467 E4.83649
G1 X128.601 Y107.074 E4.91155
G1 X127.437 Y110.56 E5.35257
G1 X127.221 Y111.082 E5.42037
G1 X126.933 Y111.569 E5.48826
G1 X126.642 Y111.94 E5.54484
G1 X124.637 Y114.211 E5.90837
G1 X121.182 Y118.489 E6.56824
G1 X119.583 Y120.634 E6.88929
G1 X119.214 Y121.063 E6.9572
G1 X118.642 Y121.54 E7.04657
G1 X116.944 Y122.707 E7.29382
G1 X112.507 Y126.016 E7.95802
G1 X110.35 Y127.742 E8.28953
G1 X109.885 Y128.063 E8.35733
G1 X109.379 Y128.316 E8.42522
G1 X108.842 Y128.494 E8.4931
G1 X108.286 Y128.595 E8.56092
G1 X107.721 Y128.617 E8.62877
G1 X107.283 Y128.578 E8.68154
G1 X105.317 Y128.296 E8.91987
G1 X104.765 Y128.177 E8.98763
G1 X104.234 Y127.981 E9.05555
G1 X103.737 Y127.711 E9.12343
G1 X103.369 Y127.447 E9.17778
G1 X101.777 Y126.159 E9.42351
G1 X101.364 Y125.773 E9.49135
G1 X101.008 Y125.331 E9.55945
G1 X97.843 Y120.775 E10.22515
G1 X94.524 Y116.405 E10.88365
G1 X91.533 Y112.81 E11.44483
G1 X91.203 Y112.351 E11.51267
G1 X90.968 Y111.91 E11.57263
G1 X90.473 Y110.824 E11.71585
G1 X90.276 Y110.294 E11.7837
G1 X90.128 Y109.506 E11.87992
G1 X90.08 Y108.945 E11.94748
G1 X90.071 Y108.38 E12.01529
G1 X90.124 Y107.92 E12.07086
G1 X90.405 Y106.302 E12.26792
G1 X90.541 Y105.753 E12.3358
G1 X90.753 Y105.229 E12.40363
G1 X90.979 Y104.827 E12.45897
G1 X93.452 Y100.97 E13.00877
G1 X93.79 Y100.517 E13.0766
G1 X94.188 Y100.116 E13.1444
G0 F3600 X94.493 Y100.381
G1 F1800 X94.749 Y100.183 E13.18323
G1 X97.227 Y98.442 E13.54665
G1 X97.435 Y98.307 E13.5764
G1 X98.729 Y97.525 E13.75784
G1 X99.207 Y97.283 E13.82213
G1 X99.716 Y97.114 E13.88649
G1 X100.258 Y97.021 E13.95248
G1 X103.503 Y96.72 E14.34355
G1 X108.129 Y96.111 E14.90346
G1 X108.665 Y96.081 E14.96788
G1 X109.31 Y96.151 E15.04573
G1 X117.098 Y97.719 E15.99905
G1 X117.466 Y97.813 E16.04463
G1 X123.794 Y99.801 E16.84058
G1 X124.292 Y100 E16.90493
G1 X124.755 Y100.27 E16.96925
G1 X125.173 Y100.606 E17.0336
G1 X125.507 Y100.964 E17.09236
G1 X127.599 Y103.535 E17.49011
G1 X127.906 Y103.975 E17.55449
G1 X128.144 Y104.456 E17.61889
G1 X128.307 Y104.966 E17.68314
G1 X128.394 Y105.496 E17.74759
G1 X128.4 Y106.032 E17.81192
G1 X128.327 Y106.563 E17.87623
G1 X128.222 Y106.947 E17.92401
G1 X127.058 Y110.433 E18.36503
G1 X126.85 Y110.928 E18.42946
G1 X126.572 Y111.386 E18.49375
G1 X126.342 Y111.675 E18.53808
G1 X124.329 Y113.956 E18.90314
G1 X120.869 Y118.239 E19.56386
G1 X119.262 Y120.395 E19.88654
G1 X118.911 Y120.8 E19.95085
G1 X118.416 Y121.21 E20.02798
G1 X116.707 Y122.385 E20.27686
G1 X112.272 Y125.692 E20.94072
G1 X110.1 Y127.43 E21.27454
G1 X109.658 Y127.733 E21.33884
G1 X109.175 Y127.967 E21.40325
G1 X108.663 Y128.126 E21.46758
G1 X108.133 Y128.208 E21.53194
G1 X107.34 Y128.183 E21.62714
G1 X105.374 Y127.901 E21.86548
G1 X104.85 Y127.785 E21.92988
G1 X104.349 Y127.593 E21.99427
G1 X103.883 Y127.329 E22.05854
G1 X103.621 Y127.136 E22.09758
G1 X102.029 Y125.848 E22.34332
G1 X101.638 Y125.48 E22.40775
G1 X101.336 Y125.103 E22.46572
G1 X98.154 Y120.522 E23.13504
G1 X94.837 Y116.154 E23.7932
G1 X91.841 Y112.554 E24.35523
G1 X91.529 Y112.117 E24.41967
G1 X91.332 Y111.744 E24.47029
G1 X90.837 Y110.658 E24.61351
G1 X90.652 Y110.155 E24.67782
G1 X90.526 Y109.472 E24.76116
G1 X90.478 Y108.911 E24.82873
G1 X90.472 Y108.375 E24.89305
G1 X90.518 Y107.988 E24.93982
G1 X90.799 Y106.37 E25.13689
G1 X90.93 Y105.85 E25.20124
G1 X91.137 Y105.355 E25.26562
G1 X91.315 Y105.043 E25.30872
G1 X93.788 Y101.186 E25.85853
G1 X94.111 Y100.757 E25.92297
G1 X94.493 Y100.381 E25.98729
G0 F3600 X94.979 Y100.511
G1 F1800 X97.457 Y98.77 E26.35071
G1 X97.642 Y98.649 E26.37723
G1 X98.936 Y97.867 E26.55867
G1 X99.388 Y97.641 E26.61931
G1 X99.87 Y97.488 E26.67999
G1 X100.295 Y97.42 E26.73164
G1 X103.513 Y97.121 E27.11946
G1 X108.181 Y96.507 E27.68445
G1 X108.686 Y96.481 E27.74513
G1 X109.231 Y96.543 E27.81095
G1 X117.019 Y98.111 E28.76427
G1 X117.346 Y98.195 E28.80478
G1 X123.674 Y100.183 E29.60073
G1 X124.143 Y100.372 E29.66141
G1 X124.576 Y100.633 E29.72208
G1 X124.963 Y100.959 E29.7828
G1 X125.197 Y101.216 E29.82451
G1 X127.289 Y103.787 E30.22226
G1 X127.576 Y104.203 E30.28291
G1 X127.794 Y104.66 E30.34367
G1 X127.938 Y105.144 E30.40426
G1 X128.003 Y105.646 E30.465
G1 X127.988 Y106.151 E30.52563
G1 X127.842 Y106.82 E30.6078
G1 X126.678 Y110.306 E31.04883
G1 X126.481 Y110.772 E31.10954
G1 X126.212 Y111.2 E31.1702
G1 X126.042 Y111.411 E31.20271
G1 X124.023 Y113.698 E31.5688
G1 X120.558 Y117.989 E32.23064
G1 X118.942 Y120.156 E32.55502
G1 X118.608 Y120.537 E32.61582
G1 X118.189 Y120.881 E32.68088
G1 X116.463 Y122.068 E32.93225
G1 X112.037 Y125.369 E33.59482
G1 X109.85 Y127.118 E33.93086
G1 X109.432 Y127.401 E33.99144
G1 X108.974 Y127.616 E34.05215
G1 X108.488 Y127.755 E34.11281
G1 X107.986 Y127.816 E34.17349
G1 X107.397 Y127.787 E34.24426
G1 X105.431 Y127.505 E34.48259
G1 X104.937 Y127.393 E34.54338
G1 X104.468 Y127.206 E34.60397
G1 X103.872 Y126.825 E34.68885
G1 X102.28 Y125.537 E34.93459
G1 X101.914 Y125.189 E34.99519
G1 X101.665 Y124.875 E35.04328
G1 X98.476 Y120.284 E35.71407
G1 X95.159 Y115.916 E36.37223
G1 X92.148 Y112.298 E36.93707
G1 X91.857 Y111.885 E36.9977
G1 X91.696 Y111.578 E37.0393
G1 X91.201 Y110.492 E37.18252
G1 X91.029 Y110.017 E37.24314
G1 X90.925 Y109.438 E37.31373
G1 X90.877 Y108.877 E37.3813
G1 X90.873 Y108.371 E37.44202
G1 X90.912 Y108.056 E37.48011
G1 X91.193 Y106.438 E37.67717
G1 X91.319 Y105.949 E37.73777
G1 X91.52 Y105.485 E37.79845
G1 X91.652 Y105.259 E37.82986
G1 X94.125 Y101.402 E38.37966
G1 X94.431 Y100.999 E38.44039
G1 X94.979 Y100.511 E38.52844
G0 F3600 X97.063 Y103.215
;TYPE:SUPPORT
G1 F1800 X97.449 Y103.012 E38.58078
G1 X97.746 Y102.716 E38.63109
G1 X98.203 Y102.473 E38.6932
G1 X98.483 Y102.196 E38.74047
G1 X99.003 Y101.92 E38.81111
G1 X99.287 Y101.637 E38.85922
G1 X99.78 Y101.375 E38.92622
G1 X100.047 Y101.11 E38.97136
G1 X100.613 Y100.808 E39.04834
G1 X100.746 Y100.84 E39.06476
G1 X101.699 Y102.193 E39.26335
G1 X102.194 Y102.37 E39.32644
G1 X103.173 Y102.096 E39.44843
G1 X103.243 Y102.093 E39.45684
G1 X103.414 Y102.134 E39.47794
G1 X100.475 Y102.984 E39.84507
G1 X100.157 Y103.22 E39.89259
G1 X99.802 Y103.763 E39.97044
G1 X99.824 Y104.462 E40.05437
G1 X100.161 Y104.903 E40.12097
G1 X101.284 Y106.686 E40.37383
G1 X100.491 Y106.824 E40.47042
G1 X100.223 Y107.362 E40.54255
G1 X101.289 Y109.415 E40.82014
G1 X101.182 Y109.711 E40.85791
G1 X101.192 Y109.878 E40.87798
G1 X102.24 Y111.896 E41.15085
G1 X102.368 Y112 E41.17064
G1 X102.677 Y112.088 E41.2092
G1 X103.03 Y112.767 E41.30103
G1 X103.403 Y113.069 E41.35862
G1 X103.695 Y113.151 E41.39502
G1 X103.708 Y113.165 E41.39731
G1 X104.471 Y113.385 E41.4926
G1 X104.479 Y113.408 E41.49552
G1 X104.622 Y113.627 E41.52691
G1 X108.296 Y117.195 E42.14148
G1 X108.67 Y117.355 E42.19029
G1 X109.292 Y117.379 E42.26499
G1 X109.407 Y117.373 E42.27881
G1 X109.533 Y117.351 E42.29416
G1 X109.559 Y117.36 E42.29746
G1 X110.205 Y117.246 E42.37618
G1 X111.084 Y117.109 E42.48293
G1 X111.142 Y117.111 E42.48989
G1 X111.453 Y117.06 E42.52771
G1 X111.859 Y117.02 E42.57667
G1 X114.217 Y116.581 E42.86449
G1 X115.36 Y116.377 E43.00382
G1 X115.2 Y116.871 E43.06613
G1 X116.085 Y118.134 E43.25119
G1 X115.553 Y118.531 E43.33085
G1 X115.29 Y118.617 E43.36405
G1 X114.821 Y118.962 E43.43392
G1 X114.766 Y118.981 E43.4409
G1 X112.195 Y118.896 E43.74959
G1 X108.159 Y118.552 E44.23567
G1 X107.737 Y118.943 E44.3047
G1 X107.737 Y121.471 E44.60806
G1 X108.319 Y122.552 E44.75539
G1 X108.274 Y122.736 E44.77812
G1 X108.215 Y123.171 E44.8308
G1 X108.177 Y123.326 E44.84995
G1 X108.124 Y123.692 E44.89433
G1 X107.99 Y124.236 E44.96156
G1 X107.938 Y124.322 E44.97362
G1 X107.807 Y124.433 E44.99422
G1 X107.709 Y124.459 E45.00639
G1 X106.026 Y124.168 E45.21135
G1 X105.514 Y122.8 E45.38663
G1 X105.001 Y122.564 E45.45439
G1 X104.359 Y122.807 E45.53676
G1 X103.998 Y122.26 E45.61541
G1 X103.909 Y122.223 E45.62697
G1 X103.603 Y121.59 E45.71134
G1 X103.488 Y121.211 E45.75887
G1 X103.179 Y120.559 E45.84545
G1 X103.066 Y120.168 E45.89429
G1 X102.723 Y119.492 E45.98526
G1 X102.758 Y119.091 E46.03356
G1 X102.367 Y118.329 E46.13634
G1 X102.418 Y117.919 E46.18592
G1 X102.028 Y117.17 E46.28725
G1 X102.063 Y116.803 E46.33149
G1 X101.957 Y116.053 E46.42239
G1 X102.472 Y115.258 E46.53605
G1 X102.424 Y114.723 E46.60051
G1 X101.631 Y113.888 E46.7387
G1 X101.476 Y113.513 E46.78739
G1 X101.233 Y113.26 E46.82949
G1 X101.082 Y112.9 E46.87633
G1 X100.867 Y112.671 E46.91403
G1 X100.711 Y112.297 E46.96265
G1 X98.95 Y110.471 E47.26707
G1 X94.793 Y110.188 E47.76706
G1 X94.3 Y109.123 E47.90789
G1 X94.248 Y108.61 E47.96977
G1 X94.494 Y107.186 E48.14318
G1 X95.712 Y107.033 E48.29049
G1 X96.089 Y106.65 E48.35498
G1 X96.296 Y104.723 E48.58755
G1 X97.097 Y104.747 E48.68371
G1 X97.455 Y104.248 E48.75741
G1 X97.063 Y103.215 E48.88999
G0 F3600 X97.522 Y103.974
G1 F1800 X99.649 Y103.974 E49.14523
G0 F3600 X98.642 Y102.293
G1 F1800 X98.642 Y110.29 E50.10487
G0 F3600 X100.619 Y111.972
G1 F1800 X102.099 Y111.972 E50.28247
G0 F3600 X101.308 Y113.025
G1 F1800 X101.308 Y110.449 E50.59159
G0 F3600 X101.053 Y109.306
G1 F1800 X94.56 Y109.306 E51.37075
G0 F3600 X95.976 Y110.107
G1 F1800 X95.976 Y106.993 E51.74443
G0 F3600 X96.251 Y106.64
G1 F1800 X100.61 Y106.64 E52.26751
G10
G0 F3600 X100.06 Y104.378
G0 X100.042 Y103.831
G0 X100.276 Y103.47
G0 X101.308 Y102.577
G11
G1 F1800 X101.308 Y101.917 E52.34671
G0 F3600 X100.88 Y101.308
G1 F1800 X100.075 Y101.308 E52.44331
G10
G0 F3600 X100.06 Y104.378
G0 X101.363 Y108.195
G0 X103.974 Y113.409
G11
G1 F1800 X103.974 Y121.988 E53.47279
G0 F3600 X105.54 Y122.636
G1 F1800 X108.132 Y122.636 E53.78383
G0 F3600 X106.64 Y124.111
G1 F1800 X106.64 Y115.81 E54.77995
G0 F3600 X105.435 Y114.638
G1 F1800 X102.562 Y114.638 E55.12471
G0 F3600 X102.278 Y117.304
G1 F1800 X108.18 Y117.304 E55.83295
G0 F3600 X109.306 Y117.538
G1 F1800 X109.306 Y118.488 E55.94695
G0 F3600 X110.877 Y117.304
G1 F1800 X115.309 Y117.304 E56.47879
G0 F3600 X114.638 Y116.668
G1 F1800 X114.638 Y118.816 E56.73655
G0 F3600 X111.972 Y118.716
G1 F1800 X111.972 Y117.161 E56.92315
G0 F3600 X107.576 Y119.97
G1 F1800 X103.143 Y119.97 E57.45511
G10
G0 F3600 X100.06 Y104.378
G0 X100.042 Y103.831
G0 X100.332 Y103.384
G0 X100.473 Y103.28
G0 X108.153 Y100.239
G11
G1 F1800 X108.359 Y99.96 E57.49673
G1 X108.409 Y99.926 E57.50399
G1 X108.614 Y99.87 E57.52949
G1 X108.655 Y99.868 E57.53441
G1 X109.625 Y100.048 E57.6528
G1 X109.624 Y100.065 E57.65484
G1 X108.153 Y100.239 E57.8326
G10
G0 F3600 X108.244 Y101.019
G0 X108.393 Y102.274
G0 X103.706 Y107.612
G0 X103.615 Y107.572
;TYPE:WALL-INNER
G11
G1 F1800 X103.457 Y107.32 E57.86829
G1 X101.659 Y104.467 E58.27296
G1 X101.518 Y104.243 E58.30473
G1 X101.772 Y104.17 E58.32377
G1 X105.719 Y103.029 E58.8168
G1 X106.263 Y103.159 E58.88392
G1 X106.712 Y102.931 E58.94435
G1 X107.084 Y102.429 E59.01932
G1 X114.521 Y101.548 E59.918
G1 X116.147 Y101.849 E60.11644
G1 X116.215 Y101.847 E60.1246
G1 X116.248 Y101.87 E60.12943
G1 X122.354 Y103.752 E60.89616
G1 X122.418 Y103.806 E60.90621
G1 X124.179 Y105.969 E61.24092
G1 X123.182 Y108.862 E61.60811
G1 X118.762 Y110.36 E62.16815
G1 X118.347 Y110.764 E62.23765
G1 X118.324 Y114.321 E62.6645
G1 X109.261 Y115.877 E63.76797
G1 X109.085 Y115.87 E63.78911
G1 X105.825 Y112.705 E64.33435
G1 X105.608 Y112.067 E64.41521
G1 X104.657 Y111.8 E64.53375
G1 X102.706 Y108.04 E65.04207
G1 X102.65 Y107.931 E65.05678
G1 X102.725 Y107.725 E65.08308
G1 X102.846 Y107.705 E65.0978
G1 X103.322 Y107.622 E65.15578
G1 X103.615 Y107.572 E65.17662
G0 F3600 X102.958 Y107.279
;TYPE:WALL-OUTER
G1 F1800 X102.799 Y107.027 E65.21237
G1 X101.098 Y104.327 E65.59531
G1 X101.064 Y104.272 E65.60307
G1 X100.913 Y104.074 E65.63295
G1 X100.971 Y103.985 E65.6457
G1 X101.033 Y103.967 E65.65268
G1 X105.71 Y102.615 E66.2369
G1 X106.213 Y102.736 E66.29898
G1 X106.447 Y102.617 E66.33049
G1 X106.866 Y102.052 E66.4149
G1 X114.534 Y101.144 E67.34148
G1 X116.177 Y101.448 E67.54199
G1 X116.337 Y101.443 E67.5612
G1 X116.427 Y101.507 E67.57445
G1 X122.427 Y103.357 E68.3279
G1 X122.515 Y103.365 E68.3385
G1 X122.605 Y103.441 E68.35264
G1 X122.634 Y103.438 E68.35614
G1 X124.629 Y105.888 E68.73528
G1 X123.532 Y109.082 E69.14054
G1 X123.392 Y109.213 E69.16354
G1 X118.976 Y110.71 E69.72308
G1 X118.746 Y110.934 E69.76161
G1 X118.722 Y114.658 E70.2085
G1 X109.285 Y116.278 E71.3575
G1 X108.916 Y116.264 E71.40182
G1 X105.477 Y112.925 E71.97701
G1 X105.297 Y112.395 E72.04418
G1 X104.382 Y112.138 E72.15823
G1 X102.214 Y107.96 E72.72307
G1 X102.428 Y107.37 E72.79838
G1 X102.663 Y107.329 E72.82701
G1 X102.665 Y107.328 E72.82728
G1 X102.958 Y107.279 E72.84807
G0 F3600 X102.851 Y107.11
G0 X103.274 Y106.844
G0 X103.651 Y107.588
G0 X103.15 Y108.047
;TYPE:SKIN
G1 F1800 X104.256 Y107.857 E72.98274
G1 X102.125 Y104.474 E73.46252
G1 X105.728 Y103.433 E73.91257
G1 X106.312 Y103.572 E73.98461
G1 X106.971 Y103.237 E74.07332
G1 X107.297 Y102.797 E74.13903
G1 X114.509 Y101.943 E75.01052
G1 X116.119 Y102.241 E75.207
G1 X122.154 Y104.099 E75.96474
G1 X123.74 Y106.046 E76.26609
G1 X122.875 Y108.555 E76.58456
G1 X118.553 Y110.019 E77.13215
G1 X117.959 Y110.598 E77.23169
G1 X117.936 Y113.992 E77.63898
G1 X109.246 Y115.484 E78.69703
G1 X106.165 Y112.493 E79.21232
G1 X105.911 Y111.747 E79.30688
G1 X104.926 Y111.47 E79.42967
G1 X103.15 Y108.047 E79.89243
G0 F3600 X105.112 Y111.334
G1 F1800 X105.001 Y111.223 E79.91126
G0 F3600 X105.898 Y111.555
G1 F1800 X104.39 Y110.047 E80.16718
G1 X104.32 Y109.977
G0 F3600 X103.781 Y108.872
G1 F1800 X110.068 Y115.159 E81.23412
G1 X110.138 Y115.229
G0 F3600 X109.585 Y115.242
G1 F1800 X106.106 Y111.763 E81.82452
G1 X106.036 Y111.693
G0 F3600 X104.105 Y108.065
G1 F1800 X111.034 Y114.993 E83.00033
G1 X111.104 Y115.063
G0 F3600 X111.517 Y114.911
G1 F1800 X104.482 Y107.876 E84.19421
G1 X104.412 Y107.806
G0 F3600 X103.622 Y108.148
G1 F1800 X110.551 Y115.076 E85.37001
G1 X110.621 Y115.146
G0 F3600 X111.999 Y114.827
G1 F1800 X103.519 Y106.347 E86.80912
G1 X103.449 Y106.277
G0 F3600 X102.556 Y104.819
G1 F1800 X112.482 Y114.745 E88.49362
G1 X112.552 Y114.815
G0 F3600 X112.965 Y114.662
G1 F1800 X102.775 Y104.472 E90.22292
G1 X102.705 Y104.402
G0 F3600 X103.214 Y104.345
G1 F1800 X113.448 Y114.579 E91.95968
G1 X113.518 Y114.649
G0 F3600 X113.93 Y114.496
G1 F1800 X103.653 Y104.219 E93.70375
G1 X103.583 Y104.149
G0 F3600 X104.092 Y104.092
G1 F1800 X114.413 Y114.413 E95.45528
G1 X114.483 Y114.483
G0 F3600 X114.896 Y114.33
G1 F1800 X104.531 Y103.965 E97.21428
G1 X104.461 Y103.895
G0 F3600 X104.97 Y103.838
G1 F1800 X115.379 Y114.247 E98.98074
G1 X115.449 Y114.317
G0 F3600 X115.861 Y114.164
G1 F1800 X105.409 Y103.712 E100.75451
G1 X105.339 Y103.642
G0 F3600 X105.929 Y103.666
G1 F1800 X116.344 Y114.081 E102.52199
G1 X116.414 Y114.151
G0 F3600 X116.827 Y113.999
G1 F1800 X106.505 Y103.676 E104.27378
G1 X106.435 Y103.606
G0 F3600 X106.879 Y103.485
G1 F1800 X117.31 Y113.916 E106.04398
G1 X117.38 Y113.986
G0 F3600 X117.756 Y113.796
G1 F1800 X107.195 Y103.235 E107.83624
G1 X107.125 Y103.165
G0 F3600 X107.482 Y102.956
G1 F1800 X117.76 Y113.235 E109.58056
G1 X117.83 Y113.305
G0 F3600 X117.764 Y112.673
G1 F1800 X107.987 Y102.896 E111.23977
G1 X107.917 Y102.826
G0 F3600 X108.494 Y102.837
G1 F1800 X117.768 Y112.111 E112.81362
