;FLAVOR:UltiGCode
;TIME:1342
;MATERIAL:5131
;MATERIAL2:0
;NOZZLE_DIAMETER:0.4
;Generated with Cura_SteamEngine 3.1.0
M82 ; absolute extrusion mode

;LAYER_COUNT:144
;LAYER:0
M107
G0 F3600 X72.104 Y56.801 Z0.3
;TYPE:SKIRT
G1 F1800 X72.499 Y56.397 E0.0678
G1 X72.948 Y56.053 E0.13568
G1 X73.441 Y55.776 E0.20354
G1 X73.996 Y55.562 E0.27492
G1 X78.266 Y54.274 E0.81012
G1 X81.705 Y53.106 E1.24595
G1 X82.521 Y52.922 E1.34633
G1 X93.787 Y51.588 E2.70769
G1 X94.351 Y51.561 E2.77545
G1 X94.895 Y51.611 E2.84101
G1 X96.664 Y51.897 E3.05604
G1 X97.214 Y52.027 E3.12386
G1 X105.518 Y54.61 E4.16744
G1 X106.045 Y54.815 E4.23529
G1 X106.537 Y55.093 E4.30311
G1 X106.985 Y55.437 E4.37089
G1 X107.427 Y55.898 E4.44752
G1 X110.345 Y59.468 E5.00082
G1 X110.671 Y59.929 E5.06858
G1 X110.929 Y60.433 E5.13652
G1 X111.113 Y60.967 E5.2043
G1 X111.22 Y61.522 E5.27212
G1 X111.247 Y62.087 E5.34
G1 X111.195 Y62.65 E5.40785
G1 X111.029 Y63.305 E5.48893
G1 X109.464 Y67.835 E6.06406
G1 X109.242 Y68.355 E6.13191
G1 X108.949 Y68.839 E6.1998
G1 X108.647 Y69.215 E6.25767
G1 X106.46 Y71.628 E6.64847
G1 X102.469 Y76.467 E7.40117
G1 X102.079 Y76.877 E7.46907
G1 X101.636 Y77.227 E7.53682
G1 X101.147 Y77.512 E7.60474
G1 X100.623 Y77.725 E7.67261
G1 X100.061 Y77.864 E7.74209
G1 X87.252 Y80.068 E9.30175
G1 X86.494 Y80.125 E9.39297
G1 X85.992 Y80.115 E9.45322
G1 X85.429 Y80.064 E9.52106
G1 X84.879 Y79.934 E9.58888
G1 X84.353 Y79.728 E9.65667
G1 X83.861 Y79.449 E9.72454
G1 X83.318 Y79.017 E9.8078
G1 X80.119 Y75.98 E10.33712
G1 X77.467 Y73.622 E10.76297
G1 X77.072 Y73.218 E10.83077
G1 X76.738 Y72.762 E10.8986
G1 X76.574 Y72.473 E10.93847
G1 X73.389 Y66.327 E11.76914
G1 X73.225 Y65.969 E11.8164
G1 X71.287 Y61.11 E12.44414
G1 X71.115 Y60.571 E12.51204
G1 X71.021 Y60.014 E12.57982
G1 X71.006 Y59.449 E12.64765
G1 X71.071 Y58.887 E12.71554
G1 X71.215 Y58.34 E12.78341
G1 X71.434 Y57.819 E12.85123
G1 X71.62 Y57.493 E12.89627
G1 X71.769 Y57.257 E12.92976
G1 X72.104 Y56.801 E12.99766
G0 F3600 X72.426 Y57.039
G1 F1800 X72.806 Y56.661 E13.06198
G1 X73.238 Y56.342 E13.12642
G1 X73.712 Y56.092 E13.19073
G1 X74.111 Y55.945 E13.24176
G1 X78.392 Y54.653 E13.77836
G1 X81.833 Y53.485 E14.21442
G1 X82.568 Y53.319 E14.30484
G1 X93.834 Y51.985 E15.66621
G1 X94.369 Y51.962 E15.73047
G1 X94.832 Y52.006 E15.78628
G1 X96.601 Y52.292 E16.00131
G1 X97.095 Y52.408 E16.0622
G1 X105.399 Y54.991 E17.10578
G1 X105.898 Y55.188 E17.17016
G1 X106.362 Y55.457 E17.23452
G1 X106.781 Y55.792 E17.29889
G1 X107.117 Y56.151 E17.3579
G1 X110.035 Y59.721 E17.91119
G1 X110.343 Y60.16 E17.97555
G1 X110.582 Y60.64 E18.03989
G1 X110.747 Y61.151 E18.10433
G1 X110.834 Y61.68 E18.16866
G1 X110.841 Y62.216 E18.23299
G1 X110.769 Y62.747 E18.29729
G1 X110.651 Y63.175 E18.35057
G1 X109.086 Y67.705 E18.92569
G1 X108.873 Y68.197 E18.99003
G1 X108.59 Y68.652 E19.05433
G1 X108.351 Y68.946 E19.09979
G1 X106.157 Y71.367 E19.49186
G1 X102.16 Y76.213 E20.24567
G1 X101.789 Y76.6 E20.31
G1 X101.365 Y76.928 E20.37433
G1 X100.896 Y77.189 E20.43874
G1 X100.394 Y77.377 E20.50306
G1 X99.993 Y77.47 E20.55246
G1 X87.184 Y79.674 E22.11213
G1 X86.502 Y79.725 E22.19419
G1 X86 Y79.715 E22.25445
G1 X85.466 Y79.665 E22.31881
G1 X84.946 Y79.535 E22.38313
G1 X84.45 Y79.33 E22.44753
G1 X83.991 Y79.054 E22.5118
G1 X83.593 Y78.727 E22.57361
G1 X80.377 Y75.674 E23.10574
G1 X77.733 Y73.323 E23.5303
G1 X77.36 Y72.938 E23.59463
G1 X76.929 Y72.289 E23.68812
G1 X73.744 Y66.143 E24.51879
G1 X73.596 Y65.821 E24.56132
G1 X71.658 Y60.962 E25.18906
G1 X71.497 Y60.45 E25.25347
G1 X71.414 Y59.92 E25.31785
G1 X71.41 Y59.384 E25.38217
G1 X71.486 Y58.853 E25.44654
G1 X71.64 Y58.34 E25.51081
G1 X71.958 Y57.706 E25.59592
G1 X72.107 Y57.47 E25.62942
G1 X72.426 Y57.039 E25.69376
G0 F3600 X72.748 Y57.279
G1 F1800 X73.111 Y56.927 E25.75444
G1 X73.525 Y56.636 E25.81516
G1 X73.979 Y56.414 E25.87581
G1 X74.227 Y56.328 E25.90731
G1 X78.519 Y55.033 E26.44528
G1 X81.962 Y53.864 E26.8816
G1 X82.615 Y53.716 E26.96195
G1 X93.881 Y52.382 E28.32332
G1 X94.386 Y52.363 E28.38396
G1 X94.768 Y52.401 E28.43003
G1 X96.537 Y52.687 E28.64506
G1 X96.976 Y52.79 E28.69917
G1 X105.28 Y55.373 E29.74275
G1 X105.75 Y55.561 E29.80349
G1 X106.184 Y55.821 E29.8642
G1 X106.571 Y56.145 E29.92477
G1 X106.808 Y56.404 E29.9669
G1 X109.726 Y59.974 E30.5202
G1 X110.014 Y60.389 E30.58081
G1 X110.233 Y60.845 E30.64152
G1 X110.377 Y61.33 E30.70223
G1 X110.444 Y61.831 E30.76288
G1 X110.43 Y62.336 E30.82351
G1 X110.273 Y63.044 E30.91053
G1 X108.708 Y67.574 E31.48566
G1 X108.505 Y68.037 E31.54632
G1 X108.233 Y68.463 E31.60697
G1 X108.054 Y68.678 E31.64054
G1 X105.857 Y71.102 E32.03312
G1 X101.852 Y75.958 E32.78846
G1 X101.5 Y76.322 E32.84922
G1 X101.096 Y76.625 E32.90982
G1 X100.649 Y76.861 E32.97048
G1 X99.926 Y77.076 E33.061
G1 X87.117 Y79.28 E34.62066
G1 X86.51 Y79.325 E34.6937
G1 X86.008 Y79.315 E34.75396
G1 X85.505 Y79.265 E34.81461
G1 X85.016 Y79.137 E34.87527
G1 X84.554 Y78.933 E34.93588
G1 X84.129 Y78.659 E34.99656
G1 X83.869 Y78.437 E35.03758
G1 X80.668 Y75.398 E35.56724
G1 X77.999 Y73.025 E35.99581
G1 X77.649 Y72.66 E36.05649
G1 X77.284 Y72.105 E36.1362
G1 X74.099 Y65.959 E36.96687
G1 X73.968 Y65.672 E37.00473
G1 X72.03 Y60.813 E37.63248
G1 X71.88 Y60.331 E37.69305
G1 X71.808 Y59.83 E37.75379
G1 X71.816 Y59.325 E37.8144
G1 X71.904 Y58.827 E37.87508
G1 X72.069 Y58.349 E37.93576
G1 X72.296 Y57.92 E37.99401
G1 X72.445 Y57.684 E38.0275
G1 X72.748 Y57.279 E38.0882
G10
G0 F3600 X75.512 Y58.583
G0 X75.867 Y59.808
G0 X78.644 Y64.135
G0 X78.553 Y64.095
;TYPE:WALL-INNER
G11
G1 F1800 X78.395 Y63.843 E38.12389
G1 X75.99 Y60.025 E38.66537
G1 X75.849 Y59.801 E38.69713
G1 X76.103 Y59.728 E38.71617
G1 X81.994 Y58.025 E39.45204
G1 X82.516 Y58.15 E39.51645
G1 X82.962 Y57.925 E39.57639
G1 X83.313 Y57.451 E39.64717
G1 X94.235 Y56.157 E40.96698
G1 X95.785 Y56.444 E41.15614
G1 X95.844 Y56.442 E41.16322
G1 X95.871 Y56.461 E41.16718
G1 X104.058 Y58.987 E42.19532
G1 X104.128 Y59.047 E42.20639
G1 X106.598 Y62.081 E42.67586
G1 X105.213 Y66.112 E43.18734
G1 X99.22 Y68.142 E43.94663
G1 X98.82 Y68.532 E44.01367
G1 X98.788 Y73.432 E44.60169
G1 X86.478 Y75.543 E46.10045
G1 X86.323 Y75.537 E46.11906
G1 X81.696 Y71.047 E46.89275
G1 X81.481 Y70.416 E46.97275
G1 X80.542 Y70.153 E47.08976
G1 X77.644 Y64.564 E47.84524
G1 X77.588 Y64.455 E47.85995
G1 X77.663 Y64.248 E47.88637
G1 X77.784 Y64.228 E47.90109
G1 X78.26 Y64.145 E47.95907
G1 X78.553 Y64.095 E47.9799
G0 F3600 X77.896 Y63.802
;TYPE:WALL-OUTER
G1 F1800 X77.737 Y63.549 E48.01576
G1 X75.417 Y59.866 E48.5381
G1 X75.361 Y59.777 E48.55072
G1 X75.234 Y59.611 E48.5758
G1 X75.273 Y59.551 E48.58439
G1 X75.293 Y59.546
G1 X75.394 Y59.517 E48.59498
G1 X81.986 Y57.611 E49.41842
G1 X82.467 Y57.727 E49.47779
G1 X82.697 Y57.611 E49.50871
G1 X83.095 Y57.074 E49.58892
G1 X94.248 Y55.753 E50.93663
G1 X95.815 Y56.043 E51.12786
G1 X95.965 Y56.038 E51.14587
G1 X96.05 Y56.098 E51.15836
G1 X104.147 Y58.596 E52.17519
G1 X104.226 Y58.602 E52.18469
G1 X104.311 Y58.676 E52.19822
G1 X104.338 Y58.672 E52.20149
G1 X107.048 Y62 E52.71651
G1 X105.557 Y66.34 E53.26719
G1 X105.427 Y66.462 E53.28858
G1 X99.434 Y68.492 E54.04788
G1 X99.219 Y68.702 E54.08394
G1 X99.186 Y73.769 E54.692
G1 X86.502 Y75.945 E56.23631
G1 X86.154 Y75.931 E56.27811
G1 X81.348 Y71.267 E57.08175
G1 X81.17 Y70.744 E57.14805
G1 X80.267 Y70.491 E57.26058
G1 X77.152 Y64.483 E58.07268
G1 X77.366 Y63.893 E58.148
G1 X77.601 Y63.852 E58.17662
G1 X77.602 Y63.851 E58.17679
G1 X77.896 Y63.802 E58.19768
G0 F3600 X77.79 Y63.633
G0 X78.213 Y63.368
G0 X78.589 Y64.111
G0 X78.087 Y64.57
;TYPE:SKIN
G1 F1800 X79.194 Y64.38 E58.33246
G1 X76.456 Y60.032 E58.94905
G1 X82.003 Y58.429 E59.64193
G1 X82.565 Y58.563 E59.71126
G1 X83.22 Y58.231 E59.79938
G1 X83.526 Y57.819 E59.86096
G1 X94.223 Y56.552 E61.15358
G1 X95.758 Y56.836 E61.3409
G1 X103.86 Y59.335 E62.35834
G1 X106.159 Y62.158 E62.79522
G1 X104.906 Y65.805 E63.25797
G1 X99.011 Y67.801 E64.00482
G1 X98.432 Y68.366 E64.1019
G1 X98.4 Y73.103 E64.67035
G1 X86.48 Y75.147 E66.12163
G1 X82.035 Y70.833 E66.86494
G1 X81.784 Y70.096 E66.95837
G1 X80.811 Y69.823 E67.07964
G1 X78.087 Y64.57 E67.78971
G0 F3600 X81.004 Y69.691
G1 F1800 X80.878 Y69.565 E67.81109
G0 F3600 X81.79 Y69.91
G1 F1800 X80.27 Y68.39 E68.06905
G1 X80.2 Y68.32
G0 F3600 X79.661 Y67.216
G1 F1800 X87.272 Y74.827 E69.36068
G1 X87.342 Y74.897
G0 F3600 X86.79 Y74.91
G1 F1800 X81.971 Y70.091 E70.17849
G1 X81.901 Y70.021
G0 F3600 X79.052 Y66.041
G1 F1800 X87.755 Y74.744 E71.65544
G1 X87.825 Y74.814
G0 F3600 X88.238 Y74.661
G1 F1800 X78.443 Y64.867 E73.31762
G1 X78.373 Y64.797
G0 F3600 X78.776 Y64.634
G1 F1800 X88.721 Y74.579 E75.00534
G1 X88.791 Y74.649
G0 F3600 X89.204 Y74.496
G1 F1800 X79.259 Y64.551 E76.69306
G1 X79.189 Y64.481
G0 F3600 X78.986 Y63.713
G1 F1800 X89.687 Y74.413 E78.509
G1 X89.757 Y74.483
G0 F3600 X90.17 Y74.331
G1 F1800 X78.024 Y62.185 E80.57024
G1 X77.954 Y62.115
G0 F3600 X77.061 Y60.657
G1 F1800 X90.653 Y74.248 E82.8768
G1 X90.723 Y74.318
G0 F3600 X91.136 Y74.165
G1 F1800 X77.025 Y60.054 E85.27151
G1 X76.955 Y59.984
G0 F3600 X77.464 Y59.928
G1 F1800 X91.618 Y74.082 E87.67353
G1 X91.688 Y74.152
G0 F3600 X92.101 Y73.999
G1 F1800 X77.902 Y59.8 E90.08318
G1 X77.832 Y59.73
G0 F3600 X78.341 Y59.674
G1 F1800 X92.584 Y73.916 E92.50021
G1 X92.654 Y73.986
G0 F3600 X93.067 Y73.833
G1 F1800 X78.78 Y59.547 E94.92471
G1 X78.71 Y59.477
G0 F3600 X79.219 Y59.42
G1 F1800 X93.55 Y73.751 E97.35676
G1 X93.62 Y73.821
G0 F3600 X94.033 Y73.668
G1 F1800 X79.658 Y59.293 E99.79628
G1 X79.588 Y59.223
G0 F3600 X80.097 Y59.167
G1 F1800 X94.516 Y73.585 E102.24318
G1 X94.586 Y73.655
G0 F3600 X94.999 Y73.503
G1 F1800 X80.535 Y59.039 E104.6978
G1 X80.465 Y58.969
G0 F3600 X80.975 Y58.913
G1 F1800 X95.482 Y73.42 E107.15972
G1 X95.552 Y73.49
G0 F3600 X95.964 Y73.336
G1 F1800 X81.414 Y58.786 E109.62894
G1 X81.344 Y58.716
G0 F3600 X81.852 Y58.659
G1 F1800 X96.447 Y73.254 E112.10579
G1 X96.517 Y73.324
G0 F3600 X96.93 Y73.171
G1 F1800 X82.49 Y58.731 E114.55634
G1 X82.42 Y58.661
G0 F3600 X82.913 Y58.588
G1 F1800 X97.413 Y73.088 E117.01707
G1 X97.483 Y73.158
G0 F3600 X97.896 Y73.005
G1 F1800 X83.287 Y58.397 E119.49622
G1 X83.217 Y58.327
G0 F3600 X83.546 Y58.09
G1 F1800 X98.221 Y72.765 E121.98665
G1 X98.291 Y72.835
G0 F3600 X98.225 Y72.204
G1 F1800 X83.969 Y57.948 E124.40597
G1 X83.899 Y57.878
G0 F3600 X84.475 Y57.888
G1 F1800 X98.229 Y71.641 E126.74002
G1 X98.299 Y71.711
G0 F3600 X98.233 Y71.08
G1 F1800 X84.981 Y57.828 E128.98895
G1 X84.911 Y57.758
G0 F3600 X85.487 Y57.768
G1 F1800 X98.236 Y70.518 E131.15262
G1 X98.306 Y70.588
G0 F3600 X98.24 Y69.956
G1 F1800 X85.993 Y57.709 E133.231
G1 X85.923 Y57.639
G0 F3600 X86.498 Y57.649
G1 F1800 X98.244 Y69.394 E135.22428
G1 X98.314 Y69.464
G0 F3600 X98.248 Y68.832
G1 F1800 X87.004 Y57.588 E137.13245
G1 X86.934 Y57.518
G0 F3600 X87.51 Y57.529
G1 F1800 X98.26 Y68.279 E138.95678
G1 X98.33 Y68.349
G0 F3600 X98.547 Y68
G1 F1800 X88.016 Y57.469 E140.74395
G1 X87.946 Y57.399
G0 F3600 X88.521 Y57.409
G1 F1800 X98.833 Y67.721 E142.49396
G1 X98.903 Y67.791
G0 F3600 X99.218 Y67.54
G1 F1800 X89.028 Y57.349 E144.22334
G1 X88.958 Y57.279
G0 F3600 X89.533 Y57.289
G1 F1800 X99.641 Y67.397 E145.93873
G1 X99.711 Y67.467
G0 F3600 X100.064 Y67.254
G1 F1800 X90.039 Y57.229 E147.64003
G1 X89.969 Y57.159
G0 F3600 X90.545 Y57.169
G1 F1800 X100.486 Y67.111 E149.32716
G1 X100.556 Y67.181
G0 F3600 X100.909 Y66.967
G1 F1800 X91.051 Y57.11 E151.00003
G1 X90.981 Y57.04
G0 F3600 X91.556 Y57.05
G1 F1800 X101.331 Y66.825 E152.6589
G1 X101.401 Y66.895
G0 F3600 X101.754 Y66.682
G1 F1800 X92.062 Y56.989 E154.30377
G1 X91.992 Y56.919
G0 F3600 X92.568 Y56.93
G1 F1800 X102.176 Y66.538 E155.93431
G1 X102.246 Y66.608
G0 F3600 X102.599 Y66.395
G1 F1800 X93.074 Y56.87 E157.55075
G1 X93.004 Y56.8
G0 F3600 X93.579 Y56.81
G1 F1800 X103.022 Y66.253 E159.15328
G1 X103.092 Y66.323
G0 F3600 X103.445 Y66.11
G1 F1800 X94.086 Y56.75 E160.74164
G1 X94.016 Y56.68
G0 F3600 X94.731 Y56.83
G1 F1800 X103.867 Y65.966 E162.29207
G1 X103.937 Y66.036
G0 F3600 X104.29 Y65.823
G1 F1800 X95.424 Y56.958 E163.7966
G1 X95.354 Y56.888
G0 F3600 X96.19 Y57.158
G1 F1800 X104.713 Y65.681 E165.243
G1 X104.783 Y65.751
G0 F3600 X104.892 Y65.294
G1 F1800 X97.007 Y57.409 E166.58113
G1 X96.937 Y57.339
G0 F3600 X97.826 Y57.662
G1 F1800 X105.036 Y64.872 E167.8047
G1 X105.106 Y64.942
G0 F3600 X105.181 Y64.452
G1 F1800 X98.644 Y57.914 E168.91416
G1 X98.574 Y57.844
G0 F3600 X99.462 Y58.167
G1 F1800 X105.325 Y64.03 E169.90914
G1 X105.395 Y64.1
G0 F3600 X105.47 Y63.609
G1 F1800 X100.28 Y58.419 E170.78991
G1 X100.21 Y58.349
G0 F3600 X101.098 Y58.672
G1 F1800 X105.614 Y63.188 E171.5563
G1 X105.684 Y63.258
G0 F3600 X105.759 Y62.767
G1 F1800 X101.916 Y58.923 E172.20857
G1 X101.846 Y58.853
G0 F3600 X102.734 Y59.176
G1 F1800 X105.904 Y62.346 E172.74653
G1 X105.974 Y62.416
G0 F3600 X104.37 Y60.246
G1 F1800 X103.552 Y59.428 E172.88535
G1 X103.482 Y59.358
G0 F3600 X79.19 Y64.224
;TIME_ELAPSED:52.496929
;LAYER:1
M106 S255
G0 F5400 X79.19 Y64.224 Z0.6
;TYPE:WALL-INNER
G1 F2700 X79.031 Y63.971 E172.92121
G1 X76.713 Y60.291 E173.44311
G1 X76.135 Y59.533 E173.5575
G1 X76.409 Y59.119 E173.61708
G1 X80.747 Y57.864 E174.15898
G1 X82.356 Y58.248 E174.35749
G1 X83.09 Y57.883 E174.45585
G1 X84.438 Y56.062 E174.72773
G1 X90.069 Y55.394 E175.40819
G1 X95.337 Y56.367 E176.05104
G1 X95.86 Y56.352 E176.11383
G1 X96.155 Y56.56 E176.15714
G1 X103.684 Y58.882 E177.10261
G1 X103.989 Y58.906 E177.13933
G1 X104.278 Y59.155 E177.1851
G1 X104.383 Y59.143 E177.19779
G1 X106.791 Y62.099 E177.65531
G1 X105.448 Y65.993 E178.1496
G1 X105.019 Y66.395 E178.22015
G1 X99.63 Y68.22 E178.9029
G1 X98.872 Y68.971 E179.03095
G1 X98.843 Y73.421 E179.56496
G1 X98.289 Y73.524 E179.63258
G1 X86.769 Y75.498 E181.03513
G1 X85.569 Y75.449 E181.17925
G1 X82.078 Y72.062 E181.76293
G1 X81.529 Y70.44 E181.96842
G1 X78.718 Y69.652 E182.31874
G1 X76.96 Y66.262 E182.77699
G1 X77.601 Y64.494 E183.00266
G1 X78.896 Y64.274 E183.16029
G1 X79.19 Y64.224 E183.18118
G0 F5400 X78.532 Y63.93
;TYPE:WALL-OUTER
G1 F1800 X78.373 Y63.677 E183.21704
G1 X76.384 Y60.519 E183.6649
G1 X75.645 Y59.549 E183.81123
G1 X76.156 Y58.776 E183.92243
G1 X80.738 Y57.451 E184.4948
G1 X82.308 Y57.825 E184.68847
G1 X82.826 Y57.568 E184.75786
G1 X84.219 Y55.685 E185.03893
G1 X90.082 Y54.99 E185.74742
G1 X95.368 Y55.966 E186.39246
G1 X95.982 Y55.948 E186.46617
G1 X96.334 Y56.197 E186.51791
G1 X103.759 Y58.487 E187.45032
G1 X104.151 Y58.517 E187.4975
G1 X104.407 Y58.738 E187.53808
G1 X104.555 Y58.721 E187.55596
G1 X107.166 Y61.926 E188.05203
G1 X107.214 Y62.099 E188.07358
G1 X105.738 Y66.378 E188.61675
G1 X105.62 Y66.38 E188.63091
G1 X105.228 Y66.746 E188.69526
G1 X99.846 Y68.569 E189.37715
G1 X99.271 Y69.139 E189.4743
G1 X99.241 Y73.754 E190.02812
G1 X98.357 Y73.918 E190.13601
G1 X86.793 Y75.9 E191.54392
G1 X85.4 Y75.843 E191.71122
G1 X81.73 Y72.282 E192.32486
G1 X81.218 Y70.768 E192.51665
G1 X78.443 Y69.99 E192.86249
G1 X76.524 Y66.291 E193.36255
G1 X77.304 Y64.139 E193.63723
G1 X78.238 Y63.98 E193.75092
G1 X78.532 Y63.93 E193.77181
G0 F5400 X78.426 Y63.761
G0 X78.849 Y63.496
G0 X79.226 Y64.24
G0 X77.891 Y64.84
;TYPE:SKIN
G1 F1800 X79.831 Y64.511 E194.00794
G1 X77.033 Y60.069 E194.63791
G1 X76.613 Y59.517 E194.72115
G1 X76.655 Y59.454 E194.73023
G1 X80.755 Y58.267 E195.24244
G1 X82.403 Y58.66 E195.44574
G1 X83.347 Y58.191 E195.57223
G1 X84.651 Y56.43 E195.83518
G1 X90.057 Y55.789 E196.48845
G1 X95.307 Y56.759 E197.12911
G1 X95.742 Y56.746 E197.18133
G1 X95.981 Y56.915 E197.21646
G1 X103.61 Y59.268 E198.17449
G1 X103.83 Y59.284 E198.20096
G1 X104.153 Y59.563 E198.25218
G1 X104.217 Y59.555 E198.25992
G1 X106.352 Y62.176 E198.66558
G1 X105.11 Y65.775 E199.12245
G1 X104.814 Y66.053 E199.17118
G1 X99.419 Y67.879 E199.85466
G1 X98.484 Y68.807 E200.01274
G1 X98.455 Y73.096 E200.52743
G1 X86.747 Y75.106 E201.95295
G1 X85.733 Y75.065 E202.07473
G1 X82.417 Y71.848 E202.62913
G1 X81.833 Y70.12 E202.84802
G1 X78.987 Y69.322 E203.20271
G1 X77.385 Y66.234 E203.62017
G1 X77.891 Y64.84 E203.79812
G0 F5400 X79.226 Y64.24
G0 X77.071 Y59.824
G1 F1800 X77.499 Y59.396 E203.87076
G0 F5400 X77.302 Y60.159
