;FLAVOR:UltiGCode
;TIME:637
;MATERIAL:2678
;MATERIAL2:0
;NOZZLE_DIAMETER:0.4
;Generated with Cura_SteamEngine 3.1.0
M82 ; absolute extrusion mode

;LAYER_COUNT:49
;LAYER:0
M107
G0 F3600 X94.901 Y100.265 Z0.3
;TYPE:SKIRT
G1 F1800 X95.517 Y99.772 E0.09468
G1 X96.181 Y99.344 E0.18948
G1 X96.884 Y98.985 E0.2842
G1 X97.385 Y98.78 E0.34916
G1 X99.07 Y98.161 E0.56457
G1 X99.824 Y97.927 E0.65931
G1 X100.598 Y97.77 E0.75408
G1 X101.384 Y97.692 E0.84886
G1 X102.174 Y97.694 E0.94366
G1 X102.959 Y97.776 E1.03838
G1 X103.026 Y97.79 E1.04659
G1 X103.8 Y97.665 E1.14067
G1 X104.354 Y97.632 E1.20727
G1 X105.007 Y97.328 E1.29371
G1 X105.739 Y97.031 E1.3885
G1 X106.103 Y96.934 E1.43371
G1 X107.435 Y96.325 E1.60946
G1 X108.168 Y96.033 E1.70414
G1 X108.619 Y95.905 E1.7604
G1 X109.409 Y95.543 E1.86468
G1 X109.607 Y95.373 E1.89599
G1 X110.256 Y94.924 E1.9907
G1 X110.686 Y94.676 E2.05026
G1 X113.003 Y93.436 E2.36562
G1 X113.061 Y93.379 E2.37537
G1 X113.678 Y92.885 E2.47022
G1 X114.341 Y92.457 E2.56492
G1 X115.044 Y92.098 E2.65964
G1 X115.49 Y91.915 E2.71749
G1 X115.801 Y91.798 E2.75737
G1 X116.553 Y91.557 E2.85213
G1 X117.325 Y91.394 E2.94681
G1 X118.111 Y91.31 E3.04167
G1 X118.9 Y91.306 E3.13635
G1 X119.686 Y91.382 E3.23111
G1 X120.562 Y91.563 E3.33845
G1 X120.82 Y91.632 E3.3705
G1 X121.572 Y91.874 E3.46529
G1 X121.953 Y92.041 E3.51521
G1 X122.376 Y92.124 E3.56694
G1 X123.131 Y92.354 E3.66165
G1 X123.86 Y92.658 E3.75643
G1 X124.554 Y93.035 E3.85121
G1 X125.206 Y93.48 E3.94593
G1 X125.81 Y93.989 E4.04072
G1 X126.36 Y94.556 E4.13551
G1 X126.849 Y95.176 E4.23027
G1 X127.229 Y95.765 E4.31438
G1 X128.343 Y97.676 E4.57982
G1 X128.808 Y98.615 E4.70556
G1 X129.325 Y99.861 E4.86744
G1 X129.591 Y100.604 E4.96214
G1 X129.78 Y101.371 E5.05693
G1 X129.795 Y101.477 E5.06978
G1 X131.868 Y106.482 E5.71986
G1 X132.172 Y106.911 E5.78295
G1 X132.561 Y107.599 E5.8778
G1 X132.878 Y108.322 E5.97253
G1 X133.207 Y109.424 E6.11054
G1 X133.649 Y111.443 E6.35855
G1 X133.778 Y112.222 E6.45331
G1 X133.828 Y113.01 E6.54806
G1 X133.799 Y113.799 E6.6428
G1 X133.689 Y114.581 E6.73757
G1 X133.501 Y115.348 E6.83233
G1 X133.237 Y116.092 E6.92706
G1 X132.854 Y116.887 E7.03296
G1 X132.719 Y117.131 E7.06642
G1 X132.302 Y117.802 E7.16122
G1 X131.82 Y118.427 E7.25594
G1 X131.788 Y118.461 E7.26154
G1 X131.755 Y118.993 E7.3255
G1 X131.627 Y119.772 E7.42023
G1 X131.421 Y120.535 E7.51507
G1 X131.138 Y121.272 E7.60981
G1 X130.783 Y121.977 E7.70453
G1 X130.358 Y122.643 E7.79934
G1 X129.868 Y123.262 E7.89407
G1 X129.318 Y123.829 E7.98886
G1 X128.713 Y124.337 E8.08366
G1 X128.061 Y124.781 E8.17832
G1 X127.366 Y125.157 E8.27314
G1 X126.637 Y125.461 E8.36793
G1 X125.881 Y125.69 E8.46272
G1 X125.42 Y125.789 E8.5193
G1 X122.934 Y126.248 E8.82266
G1 X122.893 Y126.275 E8.82855
G1 X122.353 Y126.579 E8.90291
G1 X121.647 Y126.931 E8.99758
G1 X121.255 Y127.09 E9.04834
G1 X120.856 Y127.239 E9.09945
G1 X120.802 Y127.272 E9.10705
G1 X119.79 Y127.732 E9.24044
G1 X116.507 Y128.952 E9.66072
G1 X115.894 Y129.146 E9.73788
G1 X115.548 Y129.377 E9.7878
G1 X114.851 Y129.747 E9.8825
G1 X114.119 Y130.045 E9.97734
G1 X113.417 Y130.251 E10.06513
G1 X113.364 Y130.275 E10.07211
G1 X112.63 Y130.565 E10.16682
G1 X111.546 Y130.847 E10.30123
G1 X108.986 Y131.32 E10.61363
G1 X108.203 Y131.424 E10.70841
G1 X107.414 Y131.448 E10.80314
G1 X106.626 Y131.393 E10.89793
G1 X105.848 Y131.258 E10.99268
G1 X105.227 Y131.084 E11.07007
G1 X104.253 Y131.491 E11.19674
G1 X103.51 Y131.758 E11.29149
G1 X102.744 Y131.949 E11.38622
G1 X101.962 Y132.061 E11.48102
G1 X101.173 Y132.094 E11.57578
G1 X100.385 Y132.046 E11.67052
G1 X99.606 Y131.92 E11.76521
G1 X98.843 Y131.715 E11.86002
G1 X98.105 Y131.434 E11.95478
G1 X97.399 Y131.079 E12.04961
G1 X96.733 Y130.656 E12.14429
G1 X96.02 Y130.085 E12.2539
G1 X95.262 Y129.401 E12.37642
G1 X94.704 Y128.843 E12.47112
G1 X94.18 Y128.197 E12.57093
G1 X93.351 Y127.057 E12.74008
G1 X93.001 Y126.534 E12.8156
G1 X91.97 Y124.845 E13.05305
G1 X91.594 Y124.151 E13.14777
G1 X91.289 Y123.422 E13.2426
G1 X91.059 Y122.667 E13.33731
G1 X90.908 Y121.892 E13.43206
G1 X90.835 Y121.106 E13.52678
G1 X90.842 Y120.316 E13.62159
G1 X90.876 Y120.01 E13.65853
G1 X89.864 Y117.563 E13.97629
G1 X89.6 Y116.819 E14.07103
G1 X89.412 Y116.052 E14.16579
G1 X89.302 Y115.269 E14.26067
G1 X89.273 Y114.48 E14.35542
G1 X89.328 Y113.65 E14.45524
G1 X89.446 Y112.669 E14.57381
G1 X89.58 Y111.891 E14.66854
G1 X89.792 Y111.131 E14.76322
G1 X90.079 Y110.395 E14.85802
G1 X90.44 Y109.693 E14.95275
G1 X90.87 Y109.03 E15.04757
G1 X91.265 Y108.529 E15.12413
G1 X91.378 Y108.397 E15.14498
G1 X91.921 Y107.823 E15.2398
G1 X92.348 Y107.456 E15.30737
G1 X92.292 Y106.617 E15.40827
G1 X92.28 Y105.828 E15.50296
G1 X92.348 Y105.041 E15.59775
G1 X92.494 Y104.265 E15.69251
G1 X92.719 Y103.508 E15.78727
G1 X93.019 Y102.777 E15.88209
G1 X93.391 Y102.081 E15.97679
G1 X93.832 Y101.426 E16.07155
G1 X94.337 Y100.818 E16.16639
G1 X94.901 Y100.265 E16.26118
G0 F3600 X95.302 Y100.447
G1 F1800 X95.915 Y99.982 E16.35351
G1 X96.573 Y99.583 E16.44585
G1 X97.523 Y99.156 E16.57084
G1 X99.208 Y98.537 E16.78625
G1 X99.943 Y98.31 E16.87856
G1 X100.697 Y98.16 E16.97081
G1 X101.463 Y98.089 E17.06313
G1 X102.232 Y98.098 E17.15541
G1 X102.996 Y98.187 E17.24771
G1 X103.047 Y98.198 E17.25397
G1 X103.123 Y98.178 E17.2634
G1 X103.883 Y98.058 E17.35573
G1 X104.451 Y98.028 E17.42399
G1 X105.176 Y97.691 E17.51993
G1 X105.889 Y97.403 E17.61221
G1 X106.248 Y97.308 E17.65677
G1 X107.601 Y96.689 E17.83531
G1 X108.316 Y96.405 E17.92763
G1 X108.753 Y96.283 E17.98208
G1 X109.63 Y95.881 E18.09785
G1 X109.931 Y95.63 E18.14488
G1 X110.874 Y95.029 E18.27907
G1 X113.25 Y93.757 E18.60247
G1 X113.402 Y93.612 E18.62768
G1 X114.01 Y93.141 E18.71997
G1 X114.663 Y92.735 E18.81225
G1 X115.63 Y92.289 E18.94003
G1 X115.941 Y92.172 E18.97991
G1 X116.674 Y91.939 E19.0722
G1 X117.428 Y91.783 E19.1646
G1 X118.193 Y91.706 E19.25686
G1 X118.962 Y91.71 E19.34914
G1 X119.727 Y91.793 E19.44148
G1 X120.459 Y91.949 E19.5313
G1 X120.717 Y92.018 E19.56334
G1 X121.449 Y92.255 E19.65567
G1 X121.822 Y92.42 E19.70462
G1 X122.414 Y92.548 E19.7773
G1 X123.146 Y92.786 E19.86967
G1 X123.848 Y93.099 E19.9619
G1 X124.515 Y93.483 E20.05426
G1 X125.137 Y93.934 E20.14645
G1 X125.71 Y94.448 E20.23882
G1 X126.226 Y95.018 E20.33109
G1 X126.681 Y95.639 E20.42347
G1 X126.883 Y95.966 E20.46959
G1 X127.997 Y97.877 E20.73503
G1 X128.439 Y98.768 E20.85438
G1 X128.956 Y100.014 E21.01626
G1 X129.213 Y100.739 E21.10857
G1 X129.394 Y101.486 E21.2008
G1 X129.407 Y101.585 E21.21278
G1 X131.513 Y106.668 E21.87303
G1 X131.887 Y107.21 E21.95205
G1 X132.256 Y107.885 E22.04436
G1 X132.553 Y108.595 E22.13671
G1 X132.816 Y109.509 E22.25084
G1 X133.258 Y111.528 E22.49886
G1 X133.383 Y112.287 E22.59117
G1 X133.429 Y113.055 E22.68349
G1 X133.395 Y113.824 E22.77586
G1 X133.281 Y114.584 E22.86809
G1 X133.089 Y115.329 E22.96041
G1 X132.82 Y116.05 E23.05275
G1 X132.504 Y116.693 E23.13873
G1 X132.369 Y116.937 E23.17219
G1 X131.962 Y117.59 E23.26452
G1 X131.49 Y118.197 E23.35679
G1 X131.401 Y118.289 E23.37215
G1 X131.346 Y119.048 E23.46347
G1 X131.209 Y119.805 E23.55579
G1 X130.996 Y120.543 E23.64796
G1 X130.706 Y121.256 E23.74033
G1 X130.344 Y121.935 E23.83267
G1 X129.914 Y122.572 E23.92489
G1 X129.42 Y123.162 E24.01723
G1 X128.867 Y123.697 E24.10957
G1 X128.262 Y124.171 E24.20179
G1 X127.611 Y124.581 E24.29412
G1 X126.921 Y124.92 E24.38637
G1 X126.199 Y125.186 E24.4787
G1 X125.347 Y125.396 E24.584
G1 X122.785 Y125.869 E24.89664
G1 X122.697 Y125.926 E24.90922
G1 X122.157 Y126.23 E24.98358
G1 X121.115 Y126.715 E25.1215
G1 X120.68 Y126.877 E25.17721
G1 X120.594 Y126.93 E25.18933
G1 X119.651 Y127.358 E25.3136
G1 X116.368 Y128.578 E25.73388
G1 X115.748 Y128.772 E25.81184
G1 X115.1 Y129.172 E25.90322
G1 X114.407 Y129.506 E25.99553
G1 X113.683 Y129.766 E26.08785
G1 X113.329 Y129.851 E26.13153
G1 X113.198 Y129.911 E26.14882
G1 X112.483 Y130.193 E26.24106
G1 X111.474 Y130.454 E26.36612
G1 X108.914 Y130.927 E26.67852
G1 X108.151 Y131.027 E26.77086
G1 X107.382 Y131.048 E26.86318
G1 X106.615 Y130.988 E26.9555
G1 X105.859 Y130.85 E27.04772
G1 X105.208 Y130.659 E27.12913
G1 X104.099 Y131.122 E27.27334
G1 X103.375 Y131.381 E27.36562
G1 X102.628 Y131.564 E27.45791
G1 X101.866 Y131.668 E27.55019
G1 X101.097 Y131.693 E27.64252
G1 X100.33 Y131.637 E27.73481
G1 X99.573 Y131.502 E27.82708
G1 X98.834 Y131.29 E27.91934
G1 X98.12 Y131.002 E28.01173
G1 X97.441 Y130.641 E28.10401
G1 X96.803 Y130.212 E28.19626
G1 X96.288 Y129.788 E28.27631
G1 X95.53 Y129.104 E28.39883
G1 X94.987 Y128.56 E28.49107
G1 X94.503 Y127.962 E28.58339
G1 X93.674 Y126.822 E28.75253
G1 X93.343 Y126.326 E28.82409
G1 X92.312 Y124.637 E29.06155
G1 X91.946 Y123.96 E29.1539
G1 X91.652 Y123.249 E29.24623
G1 X91.433 Y122.512 E29.33849
G1 X91.292 Y121.756 E29.43077
G1 X91.231 Y120.989 E29.5231
G1 X91.249 Y120.22 E29.61541
G1 X91.284 Y119.949 E29.6482
G1 X90.234 Y117.41 E29.9779
G1 X89.977 Y116.685 E30.07021
G1 X89.797 Y115.937 E30.16253
G1 X89.696 Y115.174 E30.25489
G1 X89.674 Y114.406 E30.34709
G1 X89.725 Y113.698 E30.43227
G1 X89.843 Y112.717 E30.55084
G1 X89.974 Y111.959 E30.64314
G1 X90.184 Y111.219 E30.73545
G1 X90.469 Y110.505 E30.8277
G1 X90.826 Y109.824 E30.91997
G1 X91.253 Y109.184 E31.0123
G1 X91.568 Y108.789 E31.07292
G1 X91.681 Y108.657 E31.09377
G1 X92.211 Y108.099 E31.18613
G1 X92.76 Y107.631 E31.27269
G1 X92.691 Y106.591 E31.39777
G1 X92.68 Y105.822 E31.49006
G1 X92.749 Y105.056 E31.58235
G1 X92.898 Y104.301 E31.6747
G1 X93.123 Y103.566 E31.76694
G1 X93.424 Y102.858 E31.85926
G1 X93.797 Y102.185 E31.95159
G1 X94.237 Y101.554 E32.0439
G1 X94.741 Y100.973 E32.1362
G1 X95.302 Y100.447 E32.22848
G0 F3600 X95.703 Y100.635
G1 F1800 X96.311 Y100.2 E32.31819
G1 X96.962 Y99.832 E32.40793
G1 X97.661 Y99.531 E32.49926
G1 X99.346 Y98.912 E32.71467
G1 X100.061 Y98.692 E32.80444
G1 X100.796 Y98.55 E32.89427
G1 X101.541 Y98.486 E32.984
G1 X102.289 Y98.503 E33.07378
G1 X103.031 Y98.599 E33.16356
G1 X103.066 Y98.607 E33.16787
G1 X103.226 Y98.565 E33.18772
G1 X103.966 Y98.452 E33.27755
G1 X104.543 Y98.426 E33.34686
G1 X105.344 Y98.053 E33.45289
G1 X106.039 Y97.774 E33.54276
G1 X106.391 Y97.681 E33.58645
G1 X107.767 Y97.052 E33.76801
G1 X108.463 Y96.778 E33.85776
G1 X108.893 Y96.66 E33.91127
G1 X109.837 Y96.226 E34.03595
G1 X110.253 Y95.889 E34.1002
G1 X111.063 Y95.381 E34.21493
G1 X113.492 Y94.081 E34.54553
G1 X113.741 Y93.849 E34.58637
G1 X114.34 Y93.4 E34.6762
G1 X114.982 Y93.017 E34.76591
G1 X115.771 Y92.663 E34.86968
G1 X116.082 Y92.546 E34.90956
G1 X116.795 Y92.321 E34.99928
G1 X117.529 Y92.172 E35.08915
G1 X118.274 Y92.103 E35.17893
G1 X119.022 Y92.114 E35.2687
G1 X119.764 Y92.205 E35.35841
G1 X120.356 Y92.336 E35.43117
G1 X120.614 Y92.405 E35.46322
G1 X121.325 Y92.636 E35.55293
G1 X121.685 Y92.798 E35.6003
G1 X121.72 Y92.802 E35.60453
G1 X122.449 Y92.973 E35.69438
G1 X123.155 Y93.22 E35.78414
G1 X123.83 Y93.541 E35.87383
G1 X124.467 Y93.933 E35.96358
G1 X125.059 Y94.39 E36.05333
G1 X125.599 Y94.908 E36.14312
G1 X126.081 Y95.481 E36.23297
G1 X126.537 Y96.168 E36.33192
G1 X127.651 Y98.079 E36.59736
G1 X128.07 Y98.921 E36.71022
G1 X128.587 Y100.167 E36.8721
G1 X128.836 Y100.873 E36.96194
G1 X129.009 Y101.6 E37.05161
G1 X129.022 Y101.7 E37.06371
G1 X131.158 Y106.857 E37.73354
G1 X131.183 Y106.887 E37.73822
G1 X131.6 Y107.508 E37.82798
G1 X131.948 Y108.17 E37.91773
G1 X132.224 Y108.866 E38.00758
G1 X132.425 Y109.595 E38.09832
G1 X132.867 Y111.614 E38.34634
G1 X132.988 Y112.352 E38.43608
G1 X133.029 Y113.099 E38.52586
G1 X132.99 Y113.846 E38.61562
G1 X132.872 Y114.585 E38.70542
G1 X132.676 Y115.307 E38.7952
G1 X132.403 Y116.004 E38.88503
G1 X132.154 Y116.5 E38.95163
G1 X132.019 Y116.744 E38.98509
G1 X131.622 Y117.378 E39.07485
G1 X131.16 Y117.966 E39.16459
G1 X130.996 Y118.135 E39.19285
G1 X131 Y118.354 E39.21913
G1 X130.935 Y119.099 E39.30887
G1 X130.791 Y119.833 E39.39863
G1 X130.569 Y120.548 E39.48847
G1 X130.273 Y121.234 E39.57813
G1 X129.904 Y121.885 E39.66792
G1 X129.469 Y122.494 E39.75773
G1 X128.971 Y123.052 E39.84748
G1 X128.416 Y123.554 E39.93728
G1 X127.811 Y123.993 E40.02698
G1 X127.162 Y124.366 E40.11681
G1 X126.478 Y124.667 E40.20648
G1 X125.765 Y124.894 E40.29628
G1 X125.275 Y125.003 E40.35651
G1 X122.641 Y125.489 E40.67793
G1 X122.501 Y125.578 E40.69784
G1 X121.961 Y125.882 E40.7722
G1 X120.975 Y126.34 E40.90266
G1 X120.503 Y126.516 E40.96311
G1 X120.385 Y126.588 E40.9797
G1 X119.511 Y126.983 E41.09479
G1 X116.228 Y128.203 E41.51507
G1 X115.546 Y128.415 E41.60078
G1 X115.305 Y128.587 E41.63631
G1 X114.653 Y128.954 E41.72609
G1 X113.966 Y129.25 E41.81586
G1 X113.251 Y129.47 E41.90563
G1 X113.156 Y129.491 E41.9173
G1 X113.032 Y129.547 E41.93363
G1 X112.336 Y129.82 E42.02334
G1 X111.401 Y130.06 E42.13918
G1 X108.841 Y130.533 E42.45158
G1 X108.099 Y130.63 E42.54138
G1 X107.351 Y130.647 E42.63116
G1 X106.606 Y130.583 E42.72089
G1 X105.871 Y130.441 E42.81072
G1 X105.192 Y130.232 E42.89597
G1 X103.945 Y130.753 E43.05815
G1 X103.24 Y131.004 E43.14795
G1 X102.513 Y131.178 E43.23766
G1 X101.771 Y131.274 E43.32744
G1 X101.023 Y131.29 E43.41722
G1 X100.278 Y131.227 E43.50694
G1 X99.544 Y131.084 E43.59667
G1 X98.829 Y130.863 E43.68648
G1 X98.141 Y130.568 E43.77631
G1 X97.49 Y130.201 E43.86599
G1 X96.881 Y129.766 E43.95579
G1 X96.556 Y129.491 E44.00688
G1 X95.798 Y128.807 E44.1294
G1 X95.271 Y128.277 E44.21909
G1 X94.827 Y127.727 E44.30391
G1 X93.998 Y126.587 E44.47306
G1 X93.684 Y126.117 E44.54089
G1 X92.653 Y124.428 E44.77835
G1 X92.298 Y123.77 E44.86806
G1 X92.015 Y123.077 E44.95789
G1 X91.808 Y122.358 E45.04768
G1 X91.679 Y121.622 E45.13734
G1 X91.629 Y120.875 E45.22718
G1 X91.659 Y120.128 E45.31689
G1 X91.693 Y119.894 E45.34527
G1 X90.603 Y117.257 E45.68768
G1 X90.355 Y116.551 E45.77747
G1 X90.183 Y115.823 E45.86724
G1 X90.09 Y115.081 E45.95697
G1 X90.076 Y114.333 E46.04675
G1 X90.122 Y113.746 E46.11741
G1 X90.24 Y112.765 E46.23597
G1 X90.369 Y112.028 E46.32576
G1 X90.576 Y111.309 E46.41554
G1 X90.858 Y110.616 E46.50532
G1 X91.213 Y109.958 E46.59504
G1 X91.636 Y109.341 E46.68481
G1 X91.872 Y109.049 E46.72987
G1 X91.985 Y108.917 E46.75072
G1 X92.502 Y108.375 E46.8406
G1 X93.072 Y107.892 E46.93026
G1 X93.174 Y107.823 E46.94503
G1 X93.172 Y107.803 E46.94745
G1 X93.09 Y106.564 E47.09645
G1 X93.081 Y105.816 E47.18622
G1 X93.151 Y105.072 E47.27589
G1 X93.301 Y104.339 E47.36567
G1 X93.528 Y103.626 E47.45547
G1 X93.829 Y102.941 E47.54525
G1 X94.202 Y102.293 E47.63497
G1 X94.642 Y101.688 E47.72474
G1 X95.144 Y101.133 E47.81455
G1 X95.703 Y100.635 E47.90438
G0 F3600 X95.547 Y101.3
G1 F1800 X96.102 Y100.831 E47.99158
G1 X96.706 Y100.427 E48.07878
G1 X97.35 Y100.091 E48.16594
G1 X97.799 Y99.907 E48.22417
G1 X99.484 Y99.288 E48.43959
G1 X100.179 Y99.075 E48.52681
G1 X100.892 Y98.94 E48.61389
G1 X101.617 Y98.885 E48.70114
G1 X102.343 Y98.909 E48.78831
G1 X103.061 Y99.013 E48.87537
G1 X103.079 Y99.018 E48.87761
G1 X103.328 Y98.952 E48.90852
G1 X104.047 Y98.846 E48.99574
G1 X104.636 Y98.824 E49.06647
G1 X105.513 Y98.416 E49.18254
G1 X106.188 Y98.146 E49.26978
G1 X106.537 Y98.055 E49.31306
G1 X107.934 Y97.416 E49.4974
G1 X108.61 Y97.151 E49.58453
G1 X109.025 Y97.039 E49.63611
G1 X110.037 Y96.574 E49.76976
G1 X110.574 Y96.151 E49.85179
G1 X111.252 Y95.734 E49.94731
G1 X113.721 Y94.413 E50.28333
G1 X114.079 Y94.088 E50.34135
G1 X114.668 Y93.663 E50.42851
G1 X115.3 Y93.304 E50.51573
G1 X115.912 Y93.038 E50.59581
G1 X116.223 Y92.921 E50.63568
G1 X116.916 Y92.703 E50.72286
G1 X117.629 Y92.562 E50.81008
G1 X118.352 Y92.501 E50.89715
G1 X119.078 Y92.519 E50.98429
G1 X119.798 Y92.618 E51.07151
G1 X120.252 Y92.722 E51.1274
G1 X120.51 Y92.791 E51.15944
G1 X121.2 Y93.017 E51.24657
G1 X121.585 Y93.192 E51.29732
G1 X121.774 Y93.219 E51.32023
G1 X122.478 Y93.399 E51.40743
G1 X123.157 Y93.656 E51.49455
G1 X123.805 Y93.986 E51.58181
G1 X124.412 Y94.384 E51.66892
G1 X124.971 Y94.848 E51.75609
G1 X125.477 Y95.369 E51.84325
G1 X125.922 Y95.943 E51.9304
G1 X126.192 Y96.369 E51.99092
G1 X127.306 Y98.28 E52.25636
G1 X127.7 Y99.075 E52.36284
G1 X128.217 Y100.321 E52.52472
G1 X128.458 Y101.006 E52.61186
